;TIME:5143.61
;Filament used:12.10890m
;Layer height:0.200
; HEADER_BLOCK_START
; generated by Creality_Print V6.3.0.3420 on 2026-06-19 at 13:55:47
; total layer number: 67
; filament_density: 1.24
; filament_diameter: 1.75
; max_z_height: 11.00
; creality_uuid: 3df252aa-3fdf-424a-b50c-17127a6caab4
; HEADER_BLOCK_END

; MINX = 45.00
; MINY = 55.00
; MINZ = 0.00
; MAXX = 175.00
; MAXY = 165.00
; MAXZ = 11.00

; multicolor_method = 0 
; THUMBNAIL_BLOCK_START

;
; THUMBNAIL_BLOCK_END

; THUMBNAIL_BLOCK_START

;
; THUMBNAIL_BLOCK_END

; external perimeters extrusion width = 0.42mm
; perimeters extrusion width = 0.45mm
; infill extrusion width = 0.45mm
; solid infill extrusion width = 0.42mm
; top infill extrusion width = 0.42mm
; support material extrusion width = 0.40mm
; first layer extrusion width = 0.50mm

; EXECUTABLE_BLOCK_START
M73 P0 R85
M201 X5000 Y5000 Z500 E5000
M203 X500 Y500 Z30 E100
M204 P5000 R2500 T5000 ; sets acceleration (P, T) and retract acceleration (R), mm/sec^2
M205 X10.00 Y10.00 Z0.40 E5.00 ; sets the jerk limits, mm/sec
; max_print_temp = 50,190
;TYPE:Custom
M220 S100 ;Reset Feedrate 
M221 S100 ;Reset Flowrate 
 
M140 S50 ;Set final bed temp 
G28 ;Home 
 
G92 E0 ;Reset Extruder 
G1 Z2.0 F3000 ;Move Z Axis up 
M104 S190 ;Set final nozzle temp 
G1 X-2.1 Y20 Z0.28 F5000.0 ;Move to start position 
M190 S50 ;Wait for bed temp to stabilize 
M109 S190 ;Wait for nozzle temp to stabilize 
G1 X-2.1 Y145.0 Z0.28 F1500.0 E15 ;Draw the first line 
G1 X-2.4 Y145.0 Z0.28 F5000.0 ;Move to side a little 
G1 X-2.4 Y20 Z0.28 F1500.0 E30 ;Draw the second line 
G92 E0  ;Reset Extruder 
G1 E-1.0000 F1800 ;Retract a bit 
G1 Z2.0 F3000 ;Move Z Axis up 
G1 E0.0000 F1800
G90
G21
M83 ; use relative distances for extrusion
;filament start gcode
G1 E-1.2 F2400
G1 Z.2 F9000
M106 S0
;LAYER_CHANGE
;Z:0.2
;HEIGHT:0.2
;BEFORE_LAYER_CHANGE
;0.2
G92 E0

;_SET_FAN_SPEED_CHANGING_LAYER
M204 P500
M205 X10 Y10
; printing object DCE_Top.stl id:736677412803194437 copy 0
M204 T500
G1 X47.555 Y55.857 Z.4 F9000
G1 Z.2
G1 E1.2 F1800
;TYPE:Inner wall
;WIDTH:0.499999
G1 X172.458 Y55.858 E4.50974
G1 X172.942 Y55.901 E.01754
G3 X174.099 Y57.058 I-.388 J1.545 E.06203
G1 X174.143 Y57.543 E.01758
G1 X174.143 Y162.457 E3.78804
G1 X174.099 Y162.942 E.01758
G3 X172.942 Y164.099 I-1.545 J-.388 E.06203
G1 X172.552 Y164.143 E.01418
G1 X47.543 Y164.143 E4.51357
G1 X47.058 Y164.099 E.01758
G3 X45.901 Y162.942 I.388 J-1.545 E.06203
G1 X45.857 Y162.552 E.01418
G1 X45.857 Y57.543 E3.79145
G1 X45.901 Y57.058 E.01758
G3 X47.058 Y55.901 I1.545 J.388 E.06203
G1 X47.448 Y55.857 E.01418
G1 X47.515 Y55.857 E.00243
G1 X46.956 Y55.453 F9000
;TYPE:Outer wall
G1 F1800
G1 X47.422 Y55.4 E.01697
G1 X172.467 Y55.401 E4.51484
G1 X173.044 Y55.453 E.02094
G1 X173.467 Y55.6 E.01615
G1 X173.845 Y55.838 E.01615
G1 X174.162 Y56.155 E.01615
G1 X174.4 Y56.533 E.01615
G1 X174.547 Y56.956 E.01615
G1 X174.6 Y57.543 E.02129
G1 X174.6 Y162.457 E3.78804
G1 X174.547 Y163.044 E.02129
G1 X174.4 Y163.467 E.01615
G1 X174.162 Y163.845 E.01615
G1 X173.845 Y164.162 E.01615
G1 X173.467 Y164.4 E.01615
G1 X173.044 Y164.547 E.01615
G1 X172.578 Y164.6 E.01697
G1 X47.543 Y164.6 E4.5145
G1 X46.956 Y164.547 E.02129
G1 X46.533 Y164.4 E.01615
G1 X46.155 Y164.162 E.01615
G1 X45.838 Y163.845 E.01615
G1 X45.6 Y163.467 E.01615
G1 X45.453 Y163.044 E.01615
G1 X45.4 Y162.578 E.01697
G1 X45.4 Y57.543 E3.79238
G1 X45.453 Y56.956 E.02129
G1 X45.6 Y56.533 E.01615
G1 X45.838 Y56.155 E.01615
G1 X46.155 Y55.838 E.01615
G1 X46.533 Y55.6 E.01615
G1 X46.918 Y55.466 E.01471
G1 E-1.2 F2400
;WIPE_START
G1 F9000
G1 X47.422 Y55.4
G1 X48.913 Y55.4
;WIPE_END
G1 X52.004 Y57.638 Z.4
G1 X95.857 Y89.395 Z.4
G1 Z.2
G1 E1.2 F1800
;TYPE:Inner wall
G1 X95.857 Y97.819 E.30418
G1 X95.786 Y98.124 E.01128
G1 X95.659 Y98.302 E.00791
G1 X95.39 Y98.469 E.01142
G1 X95.171 Y98.505 E.00801
G1 X86.829 Y98.505 E.30123
G1 X86.606 Y98.468 E.00814
G1 X86.337 Y98.297 E.01151
G1 X86.176 Y98.031 E.01124
G1 X86.143 Y97.819 E.00772
G1 X86.143 Y89.477 E.30123
G1 X86.21 Y89.181 E.01095
M73 P0 R84
G1 X86.402 Y88.94 E.01113
G1 X86.709 Y88.791 E.01232
G1 X95.171 Y88.791 E.30555
G1 X95.474 Y88.861 E.01121
G1 X95.712 Y89.055 E.01108
G1 X95.851 Y89.356 E.01197
G1 X95.334 Y89.316 F9000
;TYPE:Outer wall
G1 F1800
G1 X95.4 Y89.477 E.00626
G1 X95.4 Y97.819 E.30123
G1 X95.334 Y97.98 E.00628
G1 X95.171 Y98.048 E.00635
G1 X86.829 Y98.048 E.30123
G1 X86.665 Y97.979 E.00642
G1 X86.6 Y97.819 E.00621
G1 X86.6 Y89.477 E.30123
G1 X86.622 Y89.378 E.00365
G1 X86.769 Y89.248 E.00709
G1 X95.171 Y89.248 E.30337
G1 X95.297 Y89.301 E.00493
G1 E-1.2 F2400
;WIPE_START
G1 F9000
G1 X95.4 Y89.477
G1 X95.4 Y91.273
;WIPE_END
G1 X95.446 Y95.089 Z.4
G1 X95.644 Y111.303 Z.4
G1 Z.2
G1 E1.2 F1800
;TYPE:Inner wall
G1 X95.542 Y111.389 E.00481
G3 X95.171 Y111.505 I-.398 J-.626 E.01419
G1 X86.829 Y111.505 E.30123
G1 X86.606 Y111.468 E.00814
G1 X86.337 Y111.297 E.01151
G1 X86.176 Y111.031 E.01124
G1 X86.143 Y110.819 E.00772
G1 X86.143 Y102.477 E.30123
G1 X86.212 Y102.177 E.0111
G1 X86.337 Y101.999 E.00786
G1 X86.606 Y101.828 E.01151
G1 X86.829 Y101.791 E.00814
G1 X95.171 Y101.791 E.30123
G1 X95.39 Y101.827 E.00801
G1 X95.659 Y101.994 E.01142
G1 X95.823 Y102.262 E.01132
G1 X95.857 Y102.477 E.00786
G1 X95.857 Y110.819 E.30123
G1 X95.845 Y110.949 E.00469
G1 X95.715 Y111.237 E.01142
G1 X95.673 Y111.276 E.00206
G1 X95.4 Y110.819 F9000
;TYPE:Outer wall
G1 F1800
G1 X95.296 Y111.011 E.00787
G1 X95.171 Y111.048 E.00469
G1 X86.829 Y111.048 E.30123
G1 X86.665 Y110.979 E.00642
G1 X86.6 Y110.819 E.00621
G1 X86.6 Y102.477 E.30123
G1 X86.665 Y102.317 E.00621
G1 X86.829 Y102.248 E.00642
G1 X95.171 Y102.248 E.30123
G1 X95.334 Y102.316 E.00635
G1 X95.4 Y102.477 E.00628
G1 X95.4 Y110.779 E.29978
G1 E-1.2 F2400
;WIPE_START
G1 F9000
G1 X95.296 Y111.011
G1 X95.171 Y111.048
G1 X93.555 Y111.048
;WIPE_END
G1 X90.212 Y112.888 Z.4
G1 X86.715 Y114.813 Z.4
G1 Z.2
G1 E1.2 F1800
;TYPE:Inner wall
G1 X86.776 Y114.791 E.00233
G1 X95.171 Y114.791 E.30312
G1 X95.384 Y114.825 E.00775
G1 X95.65 Y114.986 E.01126
G1 X95.82 Y115.255 E.01149
G1 X95.857 Y115.477 E.00811
G1 X95.857 Y123.819 E.30123
G1 X95.804 Y124.083 E.00971
G1 X95.583 Y124.368 E.01303
G1 X95.266 Y124.505 E.01246
G1 X86.829 Y124.505 E.30465
G3 X86.407 Y124.36 I0 J-.686 E.01638
G1 X86.189 Y124.065 E.01326
G1 X86.143 Y123.819 E.00903
G1 X86.143 Y115.477 E.30123
G1 X86.212 Y115.177 E.0111
G3 X86.441 Y114.911 I.617 J.3 E.0128
G1 X86.678 Y114.826 E.00909
G1 X86.665 Y115.317 F9000
;TYPE:Outer wall
G1 F1800
G1 X86.829 Y115.248 E.00642
G1 X95.171 Y115.248 E.30123
G1 X95.331 Y115.313 E.00622
G1 X95.4 Y115.477 E.00641
G1 X95.4 Y123.819 E.30123
G1 X95.354 Y123.957 E.00522
G1 X95.205 Y124.048 E.00631
G1 X86.829 Y124.048 E.30245
G1 X86.688 Y124 E.00536
M73 P1 R84
G1 X86.601 Y123.835 E.00672
G1 X86.6 Y115.477 E.30181
G1 X86.65 Y115.354 E.00476
G1 E-1.2 F2400
;WIPE_START
G1 F9000
G1 X86.829 Y115.248
G1 X88.62 Y115.248
;WIPE_END
G1 X87.902 Y118.996 Z.4
G1 X82.159 Y148.934 Z.4
G1 Z.2
G1 E1.2 F1800
;TYPE:Inner wall
G1 X82.143 Y148.819 E.00416
G1 X82.143 Y128.477 E.7345
G1 X82.217 Y128.166 E.01151
G1 X82.393 Y127.947 E.01017
G1 X82.725 Y127.799 E.01312
G1 X83.629 Y127.791 E.03262
G1 X142.171 Y127.791 E2.11375
G1 X142.464 Y127.856 E.01082
G1 X142.695 Y128.034 E.01053
G1 X142.857 Y128.351 E.01285
G1 X142.857 Y148.5 E.7275
G1 X142.83 Y149.011 E.01849
G1 X142.685 Y149.274 E.01084
G1 X142.435 Y149.452 E.01107
G1 X142.171 Y149.505 E.00971
G1 X82.829 Y149.505 E2.14263
G1 X82.565 Y149.452 E.00971
G1 X82.315 Y149.274 E.01107
G1 X82.17 Y149.011 E.01084
G1 X82.165 Y148.973 E.0014
G1 X82.671 Y148.985 F9000
;TYPE:Outer wall
G1 F1800
G1 X82.6 Y148.819 E.0065
G1 X82.6 Y128.477 E.7345
G1 X82.663 Y128.319 E.00614
G1 X82.829 Y128.248 E.00649
G1 X142.171 Y128.248 E2.14263
G1 X142.333 Y128.315 E.00631
G1 X142.4 Y128.477 E.00632
G1 X142.4 Y148.819 E.7345
G1 X142.329 Y148.985 E.0065
G1 X142.171 Y149.048 E.00613
G1 X82.829 Y149.048 E2.14263
G1 X82.708 Y149 E.00468
G1 E-1.2 F2400
;WIPE_START
G1 F9000
G1 X82.6 Y148.819
G1 X82.6 Y147.03
;WIPE_END
G1 X172.911 Y56.035 Z.4
G1 Z.4
G1 Z.2
G1 E1.2 F1800
;TYPE:Bottom surface
;WIDTH:0.500777
G1 F4800
G1 X173.533 Y56.658 E.03185
G3 X173.8 Y57.467 I-1.13 J.821 E.03132
G1 X173.8 Y57.572 E.0038
G1 X172.429 Y56.201 E.07015
G1 X171.781 Y56.201 E.02342
G1 X173.8 Y58.22 E.10327
G1 X173.8 Y58.867 E.02342
G1 X171.134 Y56.201 E.13639
G1 X170.486 Y56.201 E.02342
G1 X173.8 Y59.515 E.16951
G1 X173.8 Y60.162 E.02342
G1 X169.839 Y56.201 E.20263
G1 X169.191 Y56.201 E.02342
G1 X173.8 Y60.81 E.23575
G1 X173.8 Y61.457 E.02342
G1 X168.544 Y56.201 E.26886
G1 X167.896 Y56.201 E.02342
G1 X173.8 Y62.105 E.30198
G1 X173.8 Y62.752 E.02342
G1 X167.249 Y56.201 E.3351
G1 X166.601 Y56.201 E.02342
G1 X173.8 Y63.4 E.36822
G1 X173.8 Y64.047 E.02342
G1 X165.954 Y56.201 E.40134
G1 X165.306 Y56.201 E.02342
G1 X173.8 Y64.695 E.43446
G1 X173.8 Y65.342 E.02342
G1 X164.658 Y56.201 E.46758
G1 X164.011 Y56.201 E.02342
G1 X173.8 Y65.99 E.5007
G1 X173.8 Y66.637 E.02342
G1 X163.363 Y56.201 E.53382
G1 X162.716 Y56.201 E.02342
G1 X173.8 Y67.285 E.56694
G1 X173.8 Y67.932 E.02342
G1 X162.068 Y56.201 E.60006
G1 X161.421 Y56.201 E.02342
G1 X173.8 Y68.58 E.63318
G1 X173.8 Y69.227 E.02342
G1 X160.773 Y56.201 E.6663
G1 X160.126 Y56.201 E.02342
G1 X173.8 Y69.875 E.69942
G1 X173.8 Y70.523 E.02342
G1 X159.478 Y56.201 E.73253
G1 X158.831 Y56.201 E.02342
G1 X173.8 Y71.17 E.76565
G1 X173.8 Y71.818 E.02342
G1 X158.183 Y56.201 E.79877
G1 X157.536 Y56.201 E.02342
G1 X173.8 Y72.465 E.83189
G1 X173.8 Y73.113 E.02342
G1 X156.888 Y56.201 E.86501
G1 X156.241 Y56.201 E.02342
G1 X173.8 Y73.76 E.89813
G1 X173.8 Y74.408 E.02342
G1 X155.593 Y56.201 E.93125
G1 X154.946 Y56.201 E.02342
G1 X173.8 Y75.055 E.96437
G1 X173.8 Y75.703 E.02342
G1 X154.298 Y56.201 E.99749
G1 X153.651 Y56.201 E.02342
G1 X173.8 Y76.35 E1.03061
G1 X173.8 Y76.998 E.02342
G1 X153.003 Y56.201 E1.06373
G1 X152.356 Y56.201 E.02342
G1 X173.8 Y77.645 E1.09685
G1 X173.8 Y78.293 E.02342
G1 X151.708 Y56.201 E1.12997
G1 X151.061 Y56.201 E.02342
G1 X173.8 Y78.94 E1.16309
G1 X173.8 Y79.588 E.02342
G1 X150.413 Y56.201 E1.1962
G1 X149.766 Y56.201 E.02342
G1 X173.8 Y80.235 E1.22932
G1 X173.8 Y80.883 E.02342
G1 X149.118 Y56.201 E1.26244
G1 X148.471 Y56.201 E.02342
G1 X173.8 Y81.53 E1.29556
G1 X173.8 Y82.178 E.02342
G1 X147.823 Y56.201 E1.32868
G1 X147.176 Y56.201 E.02342
G1 X173.8 Y82.825 E1.3618
G1 X173.8 Y83.473 E.02342
G1 X146.528 Y56.201 E1.39492
G1 X145.881 Y56.201 E.02342
G1 X173.8 Y84.12 E1.42804
G1 X173.8 Y84.768 E.02342
G1 X145.233 Y56.201 E1.46116
G1 X144.586 Y56.201 E.02342
G1 X173.8 Y85.415 E1.49428
G1 X173.8 Y86.063 E.02342
G1 X143.938 Y56.201 E1.5274
G1 X143.291 Y56.201 E.02342
G1 X173.8 Y86.71 E1.56052
G1 X173.8 Y87.358 E.02342
G1 X142.643 Y56.201 E1.59364
G1 X141.996 Y56.201 E.02342
G1 X173.8 Y88.005 E1.62676
G1 X173.8 Y88.653 E.02342
G1 X141.348 Y56.201 E1.65987
G1 X140.701 Y56.201 E.02342
G1 X173.8 Y89.3 E1.69299
G1 X173.8 Y89.948 E.02342
G1 X140.053 Y56.201 E1.72611
G1 X139.405 Y56.201 E.02342
G1 X173.8 Y90.595 E1.75923
G1 X173.8 Y91.243 E.02342
G1 X138.758 Y56.201 E1.79235
G1 X138.11 Y56.201 E.02342
G1 X173.8 Y91.89 E1.82547
G1 X173.8 Y92.538 E.02342
G1 X137.463 Y56.201 E1.85859
G1 X136.815 Y56.201 E.02342
G1 X173.8 Y93.185 E1.89171
G1 X173.8 Y93.833 E.02342
G1 X136.168 Y56.201 E1.92483
G1 X135.52 Y56.201 E.02342
G1 X173.8 Y94.48 E1.95795
G1 X173.8 Y95.128 E.02342
G1 X134.873 Y56.201 E1.99107
G1 X134.225 Y56.201 E.02342
G1 X173.8 Y95.775 E2.02419
G1 X173.8 Y96.423 E.02342
G1 X133.578 Y56.201 E2.05731
G1 X132.93 Y56.201 E.02342
G1 X173.8 Y97.07 E2.09042
G1 X173.8 Y97.718 E.02342
G1 X132.283 Y56.201 E2.12354
G1 X131.635 Y56.201 E.02342
G1 X173.8 Y98.365 E2.15666
G1 X173.8 Y99.013 E.02342
G1 X130.988 Y56.201 E2.18978
G1 X130.34 Y56.201 E.02342
G1 X173.8 Y99.66 E2.2229
G1 X173.8 Y100.308 E.02342
G1 X129.693 Y56.201 E2.25602
G1 X129.045 Y56.201 E.02342
G1 X173.8 Y100.955 E2.28914
G1 X173.8 Y101.603 E.02342
G1 X128.398 Y56.201 E2.32226
G1 X127.75 Y56.201 E.02342
M73 P2 R84
G1 X173.8 Y102.25 E2.35538
G1 X173.8 Y102.898 E.02342
M73 P2 R83
G1 X127.103 Y56.201 E2.3885
G1 X126.455 Y56.201 E.02342
G1 X173.8 Y103.545 E2.42162
G1 X173.8 Y104.193 E.02342
G1 X125.808 Y56.201 E2.45474
G1 X125.16 Y56.201 E.02342
G1 X173.8 Y104.84 E2.48786
G1 X173.8 Y105.488 E.02342
G1 X124.513 Y56.2 E2.52098
G1 X123.865 Y56.2 E.02342
G1 X173.8 Y106.135 E2.55409
G1 X173.8 Y106.783 E.02342
G1 X123.218 Y56.2 E2.58721
G1 X122.57 Y56.2 E.02342
G1 X173.8 Y107.43 E2.62033
G1 X173.8 Y108.078 E.02342
G1 X121.923 Y56.2 E2.65345
G1 X121.275 Y56.2 E.02342
G1 X173.8 Y108.725 E2.68657
G1 X173.8 Y109.373 E.02342
G1 X120.628 Y56.2 E2.71969
G1 X119.98 Y56.2 E.02342
G1 X173.8 Y110.02 E2.75281
G1 X173.8 Y110.668 E.02342
G1 X119.333 Y56.2 E2.78593
G1 X118.685 Y56.2 E.02342
G1 X173.8 Y111.315 E2.81905
G1 X173.8 Y111.963 E.02342
G1 X118.038 Y56.2 E2.85217
G1 X117.39 Y56.2 E.02342
G1 X173.8 Y112.611 E2.88529
G1 X173.8 Y113.258 E.02342
G1 X116.743 Y56.2 E2.91841
G1 X116.095 Y56.2 E.02342
G1 X173.8 Y113.906 E2.95153
G1 X173.8 Y114.553 E.02342
G1 X115.448 Y56.2 E2.98465
G1 X114.8 Y56.2 E.02342
G1 X173.8 Y115.201 E3.01776
G1 X173.8 Y115.848 E.02342
G1 X114.152 Y56.2 E3.05088
G1 X113.505 Y56.2 E.02342
G1 X173.8 Y116.496 E3.084
G1 X173.8 Y117.143 E.02342
G1 X112.857 Y56.2 E3.11712
G1 X112.21 Y56.2 E.02342
G1 X173.8 Y117.791 E3.15024
G1 X173.8 Y118.438 E.02342
G1 X111.562 Y56.2 E3.18336
G1 X110.915 Y56.2 E.02342
G1 X173.8 Y119.086 E3.21648
G1 X173.8 Y119.733 E.02342
G1 X110.267 Y56.2 E3.2496
G1 X109.62 Y56.2 E.02342
G1 X173.8 Y120.381 E3.28272
G1 X173.8 Y121.028 E.02342
G1 X108.972 Y56.2 E3.31584
G1 X108.325 Y56.2 E.02342
G1 X173.8 Y121.676 E3.34896
G1 X173.8 Y122.323 E.02342
G1 X107.677 Y56.2 E3.38208
G1 X107.03 Y56.2 E.02342
G1 X173.8 Y122.971 E3.4152
G1 X173.8 Y123.618 E.02342
G1 X106.382 Y56.2 E3.44832
G1 X105.735 Y56.2 E.02342
G1 X173.8 Y124.266 E3.48143
G1 X173.8 Y124.913 E.02342
G1 X105.087 Y56.2 E3.51455
G1 X104.44 Y56.2 E.02342
G1 X173.8 Y125.561 E3.54767
G1 X173.8 Y126.208 E.02342
G1 X103.792 Y56.2 E3.58079
G1 X103.145 Y56.2 E.02342
G1 X173.8 Y126.856 E3.61391
G1 X173.8 Y127.503 E.02342
G1 X102.497 Y56.2 E3.64703
G1 X101.85 Y56.2 E.02342
G1 X173.8 Y128.151 E3.68015
G1 X173.8 Y128.798 E.02342
G1 X101.202 Y56.2 E3.71327
G1 X100.555 Y56.2 E.02342
G1 X173.8 Y129.446 E3.74639
G1 X173.8 Y130.093 E.02342
M73 P3 R83
G1 X99.907 Y56.2 E3.77951
G1 X99.26 Y56.2 E.02342
G1 X173.8 Y130.741 E3.81263
G1 X173.8 Y131.388 E.02342
G1 X98.612 Y56.2 E3.84575
G1 X97.965 Y56.2 E.02342
G1 X173.8 Y132.036 E3.87887
G1 X173.8 Y132.683 E.02342
G1 X97.317 Y56.2 E3.91199
G1 X96.67 Y56.2 E.02342
G1 X173.8 Y133.331 E3.9451
G1 X173.8 Y133.978 E.02342
M73 P3 R82
G1 X96.022 Y56.2 E3.97822
G1 X95.375 Y56.2 E.02342
G1 X173.8 Y134.626 E4.01134
G1 X173.8 Y135.273 E.02342
G1 X94.727 Y56.2 E4.04446
G1 X94.08 Y56.2 E.02342
G1 X173.8 Y135.921 E4.07758
G1 X173.8 Y136.568 E.02342
G1 X93.432 Y56.2 E4.1107
G1 X92.785 Y56.2 E.02342
G1 X173.8 Y137.216 E4.14382
G1 X173.8 Y137.863 E.02342
G1 X92.137 Y56.2 E4.17694
G1 X91.49 Y56.2 E.02342
G1 X173.8 Y138.511 E4.21006
G1 X173.8 Y139.158 E.02342
G1 X90.842 Y56.2 E4.24318
G1 X90.195 Y56.2 E.02342
G1 X173.8 Y139.806 E4.2763
G1 X173.8 Y140.453 E.02342
G1 X89.547 Y56.2 E4.30942
G1 X88.899 Y56.2 E.02342
G1 X173.8 Y141.101 E4.34254
G1 X173.8 Y141.748 E.02342
G1 X88.252 Y56.2 E4.37565
G1 X87.604 Y56.2 E.02342
G1 X173.8 Y142.396 E4.40877
G1 X173.8 Y143.043 E.02342
G1 X86.957 Y56.2 E4.44189
G1 X86.309 Y56.2 E.02342
G1 X173.8 Y143.691 E4.47501
G1 X173.8 Y144.338 E.02342
G1 X85.662 Y56.2 E4.50813
G1 X85.014 Y56.2 E.02342
G1 X173.8 Y144.986 E4.54125
G1 X173.8 Y145.633 E.02342
G1 X84.367 Y56.2 E4.57437
G1 X83.719 Y56.2 E.02342
G1 X173.8 Y146.281 E4.60749
G1 X173.8 Y146.928 E.02342
G1 X83.072 Y56.2 E4.64061
G1 X82.424 Y56.2 E.02342
G1 X173.8 Y147.576 E4.67373
G1 X173.8 Y148.223 E.02342
G1 X81.777 Y56.2 E4.70685
G1 X81.129 Y56.2 E.02342
G1 X173.8 Y148.871 E4.73997
G1 X173.8 Y149.518 E.02342
G1 X80.482 Y56.2 E4.77309
G1 X79.834 Y56.2 E.02342
M73 P4 R82
G1 X173.8 Y150.166 E4.80621
G1 X173.8 Y150.813 E.02342
